X:18
T:Scottisch du Père Escale
R:Scottisch
C:Emile Escale
A:Champsaur - Hautes-Alpes - France
G:Fiddle
%%MIDI program 110 %Fiddle
M:4/4
L:1/8
Q:200
K:C
|:[BG,]G[GG,]D/D/[DG,]B[BG,]A/B/|1[c/D,/]B/A/G/[AD,]A/d/[d/G,/]c/B/A/[BG,]G:|2[c/D,/]B/A/G/[AD,]A/d/[d/G,/]c/B/A/[GG,]G|:[G/G,/]A/B/c/[dG,]d[e/D,/]d/c/B/[A2D,2]| \
|1[dG,]d/e/[dG,]d/e/[d/G,/]c/B/A/[BG,]G:|2[dG,]d/e/[dG,]d/e/[d/G,/]c/B/A/[G2G,2]| \
K:G
Z:Transcrit avec l'aide de TablEdit http://www.tabledit.com/

